utils/icon设计资源/icons/file-text-fill.svg

<svg width="1em" height="1em" viewBox="0 0 16 16" class="bi bi-file-text-fill" fill="currentColor" xmlns="http://www.w3.org/2000/svg">
  <path fill-rule="evenodd" d="M12 0H4a2 2 0 0 0-2 2v12a2 2 0 0 0 2 2h8a2 2 0 0 0 2-2V2a2 2 0 0 0-2-2zM5 4a.5.5 0 0 0 0 1h6a.5.5 0 0 0 0-1H5zm-.5 2.5A.5.5 0 0 1 5 6h6a.5.5 0 0 1 0 1H5a.5.5 0 0 1-.5-.5zM5 8a.5.5 0 0 0 0 1h6a.5.5 0 0 0 0-1H5zm0 2a.5.5 0 0 0 0 1h3a.5.5 0 0 0 0-1H5z"/>
</svg>

<?xml version="1.0" encoding="UTF-8" standalone="no"?>
<svg
   xmlns:dc="http://purl.org/dc/elements/1.1/"
   xmlns:cc="http://creativecommons.org/ns#"
   xmlns:rdf="http://www.w3.org/1999/02/22-rdf-syntax-ns#"
   xmlns:svg="http://www.w3.org/2000/svg"
   xmlns="http://www.w3.org/2000/svg"
   xmlns:sodipodi="http://sodipodi.sourceforge.net/DTD/sodipodi-0.dtd"
   xmlns:inkscape="http://www.inkscape.org/namespaces/inkscape"
   inkscape:version="1.0 (4035a4fb49, 2020-05-01)"
   sodipodi:docname="file-text-fill.svg"
   id="svg8865"
   version="1.1"
   fill="currentColor"
   class="bi bi-file-text-fill"
   viewBox="0 0 16 16"
   height="1em"
   width="1em">
  <metadata
     id="metadata8871">
    <rdf:RDF>
      <cc:Work
         rdf:about="">
        <dc:format>image/svg+xml</dc:format>
        <dc:type
           rdf:resource="http://purl.org/dc/dcmitype/StillImage" />
      </cc:Work>
    </rdf:RDF>
  </metadata>
  <defs
     id="defs8869" />
  <sodipodi:namedview
     inkscape:current-layer="svg8865"
     inkscape:window-maximized="1"
     inkscape:window-y="-9"
     inkscape:window-x="-9"
     inkscape:cy="8"
     inkscape:cx="8"
     inkscape:zoom="51.875"
     showgrid="false"
     id="namedview8867"
     inkscape:window-height="1001"
     inkscape:window-width="1920"
     inkscape:pageshadow="2"
     inkscape:pageopacity="0"
     guidetolerance="10"
     gridtolerance="10"
     objecttolerance="10"
     borderopacity="1"
     bordercolor="#666666"
     pagecolor="#ffffff" />
  <path
     d="M 4 0 A 2 2 0 0 0 2 2 L 2 14 A 2 2 0 0 0 4 16 L 12 16 A 2 2 0 0 0 14 14 L 14 2 A 2 2 0 0 0 12 0 L 4 0 z M 5 4 L 11 4 A 0.5 0.5 0 0 1 11 5 L 5 5 A 0.5 0.5 0 0 1 5 4 z M 4.9882812 6 A 0.5 0.5 0 0 1 5 6 L 11 6 A 0.5 0.5 0 0 1 11 7 L 5 7 A 0.5 0.5 0 0 1 4.5 6.5 A 0.5 0.5 0 0 1 4.9882812 6 z M 5 8 L 11 8 A 0.5 0.5 0 0 1 11 9 L 5 9 A 0.5 0.5 0 0 1 5 8 z M 5 10 L 8 10 A 0.5 0.5 0 0 1 8 11 L 5 11 A 0.5 0.5 0 0 1 5 10 z "
     style="fill:#000000;fill-opacity:1;fill-rule:evenodd"
     id="path8863" />
</svg>
